flaticon/dialogue/chat-29.svg

<svg xmlns="http://www.w3.org/2000/svg" width="32" height="32" viewBox="0 0 24 24">
    <path d="M4.398438 9.515625L9.199219 9.515625C9.421875 9.515625 9.601562 9.339844 9.601562 9.117188 9.601562 8.894531 9.421875 8.71875 9.199219 8.71875L4.398438 8.71875C4.179688 8.71875 4 8.894531 4 9.117188 4 9.339844 4.179688 9.515625 4.398438 9.515625zM14.398438 11.515625L4.398438 11.515625C4.179688 11.515625 4 11.695312 4 11.917969 4 12.136719 4.179688 12.316406 4.398438 12.316406L14.398438 12.316406C14.621094 12.316406 14.800781 12.136719 14.800781 11.917969 14.800781 11.695312 14.621094 11.515625 14.398438 11.515625zM14.398438 14.316406L4.398438 14.316406C4.179688 14.316406 4 14.496094 4 14.71875 4 14.9375 4.179688 15.117188 4.398438 15.117188L14.398438 15.117188C14.621094 15.117188 14.800781 14.9375 14.800781 14.71875 14.800781 14.496094 14.621094 14.316406 14.398438 14.316406zM14.398438 14.316406"/>
    <path d="M 22.9375 0.71875 L 6.261719 0.71875 C 5.675781 0.71875 5.199219 1.191406 5.199219 1.777344 L 5.199219 4.71875 L 1.0625 4.71875 C 0.476562 4.71875 0 5.191406 0 5.777344 L 0 23.28125 L 3.765625 19.515625 L 17.738281 19.515625 C 18.324219 19.515625 18.800781 19.042969 18.800781 18.457031 L 18.800781 15.515625 L 22.9375 15.515625 C 23.523438 15.515625 24 15.042969 24 14.457031 L 24 1.777344 C 24 1.191406 23.523438 0.71875 22.9375 0.71875 Z M 18 18.457031 C 18 18.601562 17.882812 18.71875 17.738281 18.71875 L 3.433594 18.71875 L 0.800781 21.351562 L 0.800781 5.777344 C 0.800781 5.632812 0.917969 5.515625 1.0625 5.515625 L 17.738281 5.515625 C 17.882812 5.515625 18 5.632812 18 5.777344 Z M 23.199219 14.457031 C 23.199219 14.601562 23.082031 14.71875 22.9375 14.71875 L 18.800781 14.71875 L 18.800781 5.777344 C 18.800781 5.191406 18.324219 4.71875 17.738281 4.71875 L 6 4.71875 L 6 1.777344 C 6 1.632812 6.117188 1.515625 6.261719 1.515625 L 22.9375 1.515625 C 23.082031 1.515625 23.199219 1.632812 23.199219 1.777344 Z M 23.199219 14.457031"/>
</svg>

<svg xmlns="http://www.w3.org/2000/svg" width="32" height="32" viewBox="0 0 24 24">
    <path d="M4.398 9.516H9.2a.398.398 0 1 0 0-.797H4.4a.398.398 0 1 0 0 .797zm0 0M14.398 11.516h-10a.401.401 0 0 0 0 .8h10a.401.401 0 1 0 0-.8zm0 0M14.398 14.316h-10a.401.401 0 0 0 0 .801h10a.401.401 0 1 0 0-.8zm0 0"/>
    <path d="M22.938.719H6.262a1.06 1.06 0 0 0-1.063 1.058V4.72H1.063A1.06 1.06 0 0 0 0 5.777v17.504l3.766-3.765h13.972a1.06 1.06 0 0 0 1.063-1.059v-2.941h4.137A1.06 1.06 0 0 0 24 14.457V1.777A1.06 1.06 0 0 0 22.937.72zM18 18.457a.262.262 0 0 1-.262.262H3.434L.8 21.352V5.777c0-.144.117-.261.261-.261h16.676c.145 0 .262.117.262.261zm5.2-4a.262.262 0 0 1-.262.262H18.8V5.777a1.06 1.06 0 0 0-1.063-1.058H6V1.777c0-.144.117-.261.262-.261h16.675c.145 0 .262.117.262.261zm0 0"/>
</svg>
